X: 199
T: VARIOUS: La Sansonette [Schottische]
C: C: Dominique Forges; S: Various
C: Set Leaders: Olya, Andrey
Z: Oleg Naumov arr.; NfldWhistler at The Session
N: https://thesession.org/members/26966/sets/92365
R: Schottische
M: 4/4
L: 1/8
Q: 1/2=100
K: Emin
|:"Em"B3B "D"A3G|"D"FAGF "Em"E3B,|"Em"EFGA B2GB|"D"d2^cd B3A|
"Em"B3B "D"A3G|"D"FAGF "C"EDB,D|"C"EFGA B2AG|"D"FAGF "Em"EFGA:||
|:"Em"B2GB cGBc|"Em"B2GB cGBc|"D"F2FB cFBc|"D"F2FB cFBc|
"C"B2GB cGBc|"Am"B2GB cGBc|"D"FcBA "Bm"GAGF|"C"EFGF "D"EFGA:||

